icons/file-diff-16.svg

<svg width="16" height="16" viewBox="0 0 16 16" xmlns="http://www.w3.org/2000/svg">
  <path fill-rule="evenodd" clip-rule="evenodd" d="M2.75 1.5C2.61193 1.5 2.5 1.61193 2.5 1.75V14.25C2.5 14.3881 2.61193 14.5 2.75 14.5H13.25C13.3881 14.5 13.5 14.3881 13.5 14.25V4.66421C13.5 4.59791 13.4737 4.53432 13.4268 4.48744L10.5126 1.57322C10.4657 1.52634 10.4021 1.5 10.3358 1.5H2.75ZM1 1.75C1 0.783502 1.7835 0 2.75 0H10.3358C10.7999 0 11.245 0.184374 11.5732 0.512563L14.4874 3.42678C14.8156 3.75497 15 4.20008 15 4.66421V14.25C15 15.2165 14.2165 16 13.25 16H2.75C1.7835 16 1 15.2165 1 14.25V1.75ZM8 3.25C8.41421 3.25 8.75 3.58579 8.75 4V5.5H10.25C10.6642 5.5 11 5.83579 11 6.25C11 6.66421 10.6642 7 10.25 7H8.75V8.5C8.75 8.91421 8.41421 9.25 8 9.25C7.58579 9.25 7.25 8.91421 7.25 8.5V7H5.75C5.33579 7 5 6.66421 5 6.25C5 5.83579 5.33579 5.5 5.75 5.5H7.25V4C7.25 3.58579 7.58579 3.25 8 3.25ZM5 11.25C5 10.8358 5.33579 10.5 5.75 10.5H10.25C10.6642 10.5 11 10.8358 11 11.25C11 11.6642 10.6642 12 10.25 12H5.75C5.33579 12 5 11.6642 5 11.25Z"/>
</svg>

<svg xmlns="http://www.w3.org/2000/svg" width="16" height="16" viewBox="0 0 16 16"><path fill-rule="evenodd" d="M2.75 1.5a.25.25 0 00-.25.25v12.5c0 .138.112.25.25.25h10.5a.25.25 0 00.25-.25V4.664a.25.25 0 00-.073-.177l-2.914-2.914a.25.25 0 00-.177-.073H2.75zM1 1.75C1 .784 1.784 0 2.75 0h7.586c.464 0 .909.184 1.237.513l2.914 2.914c.329.328.513.773.513 1.237v9.586A1.75 1.75 0 0113.25 16H2.75A1.75 1.75 0 011 14.25V1.75zm7 1.5a.75.75 0 01.75.75v1.5h1.5a.75.75 0 010 1.5h-1.5v1.5a.75.75 0 01-1.5 0V7h-1.5a.75.75 0 010-1.5h1.5V4A.75.75 0 018 3.25zm-3 8a.75.75 0 01.75-.75h4.5a.75.75 0 010 1.5h-4.5a.75.75 0 01-.75-.75z"/></svg>
